src/img/icons/logo.svg

<svg id="logo" width="120" height="27" viewBox="0 0 120 27" fill="none" xmlns="http://www.w3.org/2000/svg">
	<path d="M40.8945 0.0551758L33.3 13.7613L32.1449 16.3527L32.3906 14.0111L32.3801 0.0551758H26.5732V26.9792H26.5941V26.9958H31.9045L39.5042 13.0122L40.5652 10.5984L40.377 12.7625L40.3875 26.9958H46.1944L46.1735 0.0551758H40.8945Z" fill="black" />
	<path d="M11.5824 0.0544434L8.76001 0.0599894L0 26.9951H5.84872L11.4675 7.73988L17.0496 26.9951H23.1649L14.3944 0.0544434H11.5824Z" fill="black" />
	<path d="M69.003 0.0551758H52.5127V6.22018V26.9792H58.3562V6.22018H69.003V0.0551758Z" fill="black" />
	<path d="M85.263 26.996H91.3783L82.6026 0.0498047H79.7906L76.9682 0.0553549L68.2134 26.996H74.0569L75.5465 21.8964H83.7838L85.263 26.996ZM77.0257 16.8301L79.6808 7.74079L82.3151 16.8301H77.0257Z" fill="black" />
	<path d="M99.606 0.0217285V20.076L109.464 26.9069L119.321 20.076V0.0217285H99.606Z" fill="black" />
	<path d="M115.156 15.3595C115.349 15.3595 115.564 15.3373 115.778 15.2652L115.757 17.4959C115.229 17.6846 114.555 17.8289 113.907 17.8233C112.731 17.8122 111.847 17.3628 111.377 16.4749C110.243 17.3683 108.92 17.8955 107.216 17.8844C105.058 17.8622 103.197 16.5748 103.218 14.2442C103.244 11.2532 106.009 10.3487 108.314 10.3709C109.223 10.382 110.232 10.5097 111.042 10.715L111.048 10.2988C111.058 9.12241 110.154 8.3067 108.356 8.29005C106.772 8.2734 105.356 8.70623 104.274 9.13351L104.3 6.19251C105.235 5.88176 106.992 5.43229 108.769 5.44894C112.224 5.48223 114.414 6.94718 114.382 10.8204L114.351 14.5716C114.34 15.182 114.722 15.354 115.156 15.3595ZM106.187 14.05C106.176 15.0211 107.044 15.6481 108.152 15.6592C109.182 15.6703 110.159 15.3817 111.011 14.6326L111.027 12.6128C110.473 12.474 109.631 12.302 108.868 12.2965C107.525 12.2798 106.202 12.7293 106.187 14.05Z" fill="white" />
</svg>

<svg id="logo" viewBox="0 0 120 27" xmlns="http://www.w3.org/2000/svg">
	<path d="m40.9 0.1-7.6 13.7-1.2 2.6 0.2-2.3v-14h-5.8v26.9h5.3l7.6-14 1.1-2.4-0.2 2.2v14.2h5.8v-26.9h-5.2z" />
	<path d="M11.6,0.1l-2.8,0L0,27h5.8l5.6-19.3L17,27h6.1L14.4,0.1H11.6z" />
	<path d="M69,0.1H52.5v6.2V27h5.8V6.2H69V0.1z" />
	<path d="M85.3,27h6.1L82.6,0h-2.8l-2.8,0L68.2,27h5.8l1.5-5.1h8.2L85.3,27z M77,16.8l2.7-9.1l2.6,9.1H77z" />
	<path d="m106.2 14c0 1 0.9 1.6 2 1.6 1 0 2-0.3 2.9-1v-2c-0.6-0.1-1.4-0.3-2.2-0.3-1.4 0-2.7 0.4-2.7 1.7z" />
	<path d="m99.6 0v20.1l9.9 6.8 9.9-6.8v-20.1h-19.8zm16.2 17.5c-0.5 0.2-1.2 0.3-1.9 0.3-1.2 0-2.1-0.5-2.5-1.3-1.1 0.9-2.5 1.4-4.2 1.4-2.2 0-4-1.3-4-3.6 0-3 2.8-3.9 5.1-3.9 0.9 0 1.9 0.1 2.7 0.3v-0.4c0-1.2-0.9-2-2.7-2-1.6 0-3 0.4-4.1 0.8v-2.9c0.9-0.3 2.7-0.8 4.5-0.7 3.5 0 5.6 1.5 5.6 5.4v3.8c0 0.6 0.4 0.8 0.8 0.8 0.2 0 0.4 0 0.6-0.1l0.1 2.1z" />
</svg>
